assets/images/img_edit_black_900.svg

<svg xmlns="http://www.w3.org/2000/svg" width="24" height="24" fill="none" viewBox="0 0 24 24"><path fill="#000" fill-rule="evenodd" d="m16.35 1.95 2.7 2.7c.6.6.6 1.5 0 2.1L7.8 18H3v-4.8L14.25 1.95c.6-.6 1.5-.6 2.1 0ZM18 5.7 15.3 3l-2.25 2.25 2.7 2.7L18 5.7ZM4.5 13.8v2.7h2.7L14.7 9 12 6.3l-7.5 7.5Zm-3 7.2v-1.5h21V21h-21Z" clip-rule="evenodd"/></svg>

<svg width="24" height="24" viewBox="0 0 24 24" fill="none" xmlns="http://www.w3.org/2000/svg">
<path fill-rule="evenodd" clip-rule="evenodd" d="M16.35 1.95L19.05 4.65C19.65 5.25 19.65 6.15 19.05 6.75L7.8 18H3V13.2L14.25 1.95C14.85 1.35 15.75 1.35 16.35 1.95ZM18 5.7L15.3 3L13.05 5.25L15.75 7.95L18 5.7ZM4.5 13.8V16.5H7.2L14.7 9L12 6.3L4.5 13.8ZM1.5 21V19.5H22.5V21H1.5Z" fill="black"/>
</svg>
